img/logo-2.svg

<svg width="206" height="43" viewBox="0 0 206 43" fill="none" xmlns="http://www.w3.org/2000/svg">
<path fill-rule="evenodd" clip-rule="evenodd" d="M206 15.7558C203.677 11.8576 199.846 9.80693 194.587 9.80693C187.493 9.80693 181.989 14.2686 181.989 21.4646C181.989 28.659 187.371 33.1207 194.587 33.1207C199.846 33.1207 203.677 31.07 206 27.1718L202.046 24.9209C200.334 27.3319 198.093 28.659 194.505 28.659C190.102 28.659 187.045 25.7646 187.045 21.4646C187.045 17.0829 189.98 14.2686 194.505 14.2686C198.093 14.2686 200.334 15.5957 202.046 18.0067L206 15.7558ZM159.365 21.4646C159.365 16.8813 161.852 14.1085 166.621 14.1085C171.391 14.1085 173.878 16.8813 173.878 21.4646C173.878 26.0463 171.391 28.8192 166.621 28.8192C161.852 28.8192 159.365 26.0463 159.365 21.4646ZM145.953 10.3289V32.5587H150.967V23.152H154.391C155.166 29.5427 160.343 33.1207 166.621 33.1207C173.428 33.1207 178.932 28.9007 178.932 21.4646C178.932 14.0269 173.428 9.80693 166.621 9.80693C160.71 9.80693 155.778 12.983 154.594 18.6502H150.967V10.3289H145.953ZM123.083 10.3289L120.067 26.248C119.822 27.4535 119.047 27.9754 117.865 27.9754H115.42V32.5587H118.11C121.819 32.5587 124.306 30.8298 125.039 26.8901L127.323 14.8321H135.964V32.5587H141.061V10.3289H123.083ZM113.828 21.4646C113.828 14.4703 108.039 9.80693 101.192 9.80693C94.3434 9.80693 88.5559 14.4703 88.5559 21.4646C88.5559 28.4574 94.3434 33.1207 101.192 33.1207C108.039 33.1207 113.828 28.4574 113.828 21.4646ZM93.6507 21.4646C93.6507 16.8813 96.9527 14.1085 101.192 14.1085C105.432 14.1085 108.734 16.8813 108.734 21.4646C108.734 26.0463 105.432 28.8192 101.192 28.8192C96.9527 28.8192 93.6507 26.0463 93.6507 21.4646ZM62.5879 10.3289V32.5587H67.6424V14.792H79.7083V32.5587H84.8046V10.3289H62.5879Z" fill="white"/>
<path fill-rule="evenodd" clip-rule="evenodd" d="M43.928 18.6969L27.9958 21.0724C27.6152 21.1287 27.3286 20.798 27.3509 20.4199L27.8167 11.9666C27.8749 10.9197 28.4765 10.3815 29.2945 10.2599L39.4916 8.74006C40.3096 8.61699 41.0425 8.95506 41.4083 9.93963L44.3535 17.8829C44.4848 18.2402 44.3072 18.6406 43.928 18.6969ZM32.3099 41.1033L25.0118 26.8344C24.8401 26.4949 25.0655 26.1197 25.4342 26.0189L33.6564 23.7933C34.6744 23.5175 35.379 23.9148 35.7537 24.6473L40.423 33.7783C40.7977 34.5108 40.7052 35.3085 39.8797 35.9639L33.2205 41.2456C32.9219 41.4828 32.4816 41.4428 32.3099 41.1033ZM7.04494 37.0271L18.5183 25.7906C18.79 25.5237 19.2199 25.6245 19.4274 25.9433L24.0594 33.0488C24.6311 33.9281 24.4639 34.7154 23.8758 35.2922L16.5329 42.4837C15.9448 43.0605 15.1506 43.2147 14.2714 42.632L7.18526 37.9316C6.8673 37.721 6.77326 37.294 7.04494 37.0271ZM3.21452 12.017L17.5301 19.3642C17.8689 19.5377 17.9063 19.9751 17.6659 20.2687L12.3009 26.8478C11.6397 27.6618 10.8336 27.7493 10.0976 27.3712L0.938059 22.6708C0.202129 22.2927 -0.19196 21.5913 0.0931572 20.5816L2.39051 12.4292C2.49351 12.063 2.87417 11.842 3.21452 12.017ZM26.0388 0.651484L23.3936 16.4387C23.3309 16.8138 22.9234 16.9828 22.5681 16.8449L14.6177 13.7934C13.6325 13.4168 13.3041 12.6813 13.4399 11.8717L15.1342 1.76802C15.2685 0.95842 15.8194 0.369756 16.8733 0.329721L25.3924 0.000543049C25.7716 -0.0142848 26.1015 0.27634 26.0388 0.651484Z" fill="#FAB529"/>
</svg>

<svg width="206" height="43" fill="none" xmlns="http://www.w3.org/2000/svg"><path fill-rule="evenodd" clip-rule="evenodd" d="M206 15.756c-2.323-3.898-6.154-5.95-11.413-5.95-7.094 0-12.598 4.463-12.598 11.659 0 7.194 5.382 11.656 12.598 11.656 5.259 0 9.09-2.051 11.413-5.95l-3.954-2.25c-1.712 2.41-3.953 3.738-7.541 3.738-4.403 0-7.46-2.894-7.46-7.194 0-4.382 2.935-7.196 7.46-7.196 3.588 0 5.829 1.327 7.541 3.738L206 15.756Zm-46.635 5.709c0-4.584 2.487-7.357 7.256-7.357 4.77 0 7.257 2.773 7.257 7.357 0 4.581-2.487 7.354-7.257 7.354-4.769 0-7.256-2.773-7.256-7.354Zm-13.412-11.136v22.23h5.014v-9.407h3.424c.775 6.39 5.952 9.969 12.23 9.969 6.807 0 12.311-4.22 12.311-11.656 0-7.438-5.504-11.658-12.311-11.658-5.911 0-10.843 3.176-12.027 8.843h-3.627V10.33h-5.014Zm-22.87 0-3.016 15.919c-.245 1.205-1.02 1.727-2.202 1.727h-2.445v4.584h2.69c3.709 0 6.196-1.73 6.929-5.669l2.284-12.058h8.641V32.56h5.097v-22.23h-17.978Zm-9.255 11.136c0-6.995-5.789-11.658-12.636-11.658-6.849 0-12.636 4.663-12.636 11.658 0 6.992 5.787 11.656 12.636 11.656 6.847 0 12.636-4.664 12.636-11.656Zm-20.177 0c0-4.584 3.302-7.357 7.541-7.357 4.24 0 7.542 2.773 7.542 7.357 0 4.581-3.302 7.354-7.542 7.354s-7.541-2.773-7.541-7.354ZM62.588 10.329v22.23h5.054V14.792h12.066v17.767h5.097v-22.23H62.588Z" fill="#fff"/><path fill-rule="evenodd" clip-rule="evenodd" d="m43.928 18.697-15.932 2.375c-.38.057-.667-.274-.645-.652l.466-8.453c.058-1.047.66-1.585 1.477-1.707l10.198-1.52c.818-.123 1.55.215 1.916 1.2l2.945 7.943c.132.357-.046.758-.425.814ZM32.31 41.103l-7.298-14.269c-.172-.34.053-.714.422-.815l8.222-2.226c1.018-.276 1.723.122 2.098.854l4.669 9.131c.375.733.282 1.53-.543 2.186l-6.66 5.282c-.298.237-.738.197-.91-.143ZM7.045 37.027l11.473-11.236c.272-.267.702-.166.91.152l4.631 7.106c.572.88.405 1.666-.183 2.243l-7.343 7.192c-.588.576-1.382.73-2.262.148l-7.086-4.7c-.318-.211-.412-.638-.14-.905Zm-3.83-25.01 14.315 7.347c.339.174.376.611.136.905L12.3 26.848c-.661.814-1.467.901-2.203.523l-9.16-4.7c-.736-.378-1.13-1.08-.845-2.09l2.298-8.152c.103-.366.483-.587.824-.412ZM26.039.651 23.394 16.44c-.063.375-.47.544-.826.406l-7.95-3.052c-.986-.376-1.314-1.112-1.178-1.921l1.694-10.104c.134-.81.685-1.398 1.74-1.438L25.391 0c.38-.014.71.276.647.651Z" fill="#FAB529"/></svg>
